X:1
T:O Iesu soete kint
T:O Iesu soete kint
T:Johannes Van der Wielen
C:Johannes Van der Wielen
%%score [ 1 2 3 ] 4
L:1/8
Q:1/4=120
M:2/2
K:F
V:1 treble nm="Soprano" snm="S"
V:2 treble nm="Alto" snm="A"
V:3 treble-8 nm="Tenor" snm="T"
V:4 bass nm="Piano"
V:1
"^Source: Cantiones natalitiae---Antverpia---haeredes P.Palesii---1665\nEditor: André Vierendeels (16/12/03)\n" z A/B/cB B>A A2 | %1
w: O _ Ie- su so- te kint,|
w: * * ghy in een- en stal,|
w: Gaet _ nu en wilt aen- zien,|
 z G D/"^b"E/F F>"^-natural"E F2 | z E/F/GF F>E E2 | z F/G/ A/G/ F/E/ D>C C2 :: z cc d/c/ B>A A2 | %5
w: moet ghy _ in- ee- nen stal,|hier _ rus- ten in de wint|waer _ sijdt _ ghy _ her- ders al|is er niet _ een pa- leis,|
w: hier ne- * men u- wen rust|O _ Ie- su Godt van al,|Ghy _ sydt _ der _ men- schen lust,|ghy laet den _ he- melschoon _|
w: die u- * we zie- le wint,|maer _ valt op u- we knien,|voor _ dit _ ghe- * bo- ren kint,|geeft ee- nen _ soe- tenkus _|
 z AF G/F/ E>D D2 | z FGA B>A G2 | z cdG G>F F2 :| z8 | z cc d/c/ B>A A2 | z AF G/F/ E>D D2 | z8 | %12
w: oft niet een _ ka- mer cleyn,|daer ghy in de- se reys,|soud' rus- ten kint- jen reyn.||Is er niet _ een paleis _|oft niet een _ ca- mer cleyn||
w: en ook uw _ en- gels al,|en neemt voor u- wenthroon _|nu de- sen ar- men stal.|||||
w: aen sy- nen _ roo- den mont,|op- dat uw ziel al- dus,|door lief- de sy ge- wont.|||||
 z8 | z8 | z cc d/c/ B>A A2 | z dBc A>G G2 | z FGA B>A G2 | z cdG G>F F2 | z FGA B>A G2 | %19
w: ||Is- ser niet _ een paleis _|oft niet een ca- mer cleyn,|daer ghy in de- se reys|soud' rus- ten kint- jen reyn,|daer ghy in de- se reys,|
w: |||||||
w: |||||||
 z cdG G>F F2 :| z2 AB/c/ BA AG | G6 G2 | A8 |] %23
w: soud' rus- ten kint- jen reyn,|soud' _ _ rus- * ten _|kint- jen|reyn.|
w: ||||
w: ||||
V:2
 z8 | z8 | z8 | z8 :: z8 | z8 | z8 | z8 :| z GG A/G/ F>E E2 | z AAF F>E F2 | z FDE ^C>D D2 | z8 | %12
w: ||||||||Is er nier _ een pa leis|oft niet een ca- mer cleyn|oft niet een ca- mer cleyn||
 z8 | z GG A/G/ F>E E2 | z AAF F>E F2 | z BG A/G/ ^F>G G2 | z DEF G>F E2 | z AFG E>F F2 | %18
w: |Is- ser niet _ een pa- leis|Is- ser niet een pa leis,|oft niet een _ ca- mer cleyn,|daer ghy in de- se reys|soud' rus- ten- kint- jen reyn,|
 z DEF G>F E2 | z AFG E>F F2 :| z2 C2 DE F2 | E6 E2 | F8 |] %23
w: daer ghy in de- se reys,|soud' rus- ten kint- jen reyn,|soud' rus- * ten|kint- jen|reyn.|
V:3
 z8 | z8 | z8 | z8 :: z8 | z8 | z8 | z8 :| z8 | z8 | z FBG A>d d2 | z cc d/c/ B>A A2 | %12
w: ||||||||||oft niet een ca- mer cleyn,|Is- ser niet _ een pa leis,|
 z dBc A>G G2 | z8 | z FAA G>F F2 | z B_ec d>G G2 | z BGF EF c2 | z ABB c>F F2 | z BGF EF c2 | %19
w: is- ser niet een pa leis||Is- ser niet een pa leis,|oft niet een ca- mer cleyn,|daer ghy in de- se reys|soud' rus- ten kint- jen reyn,|daer ghy in de- se reys,|
 z ABB c>F F2 :| z2 A2 G2 F2 | c6 c2 | F8 |] %23
w: soud' rus- ten kint- jen reyn,|soud' rus- ten|kint- jen|reyn.|
V:4
 F,2"^#" C,"^6"D,"^5" E,2 F,2 |"^#" C,2 B,,"^6"A,,"^7 6" G,,2 F,,2 | C,2"^6" E,F,"^7 6" D,2 C,2 | %3
 F,2"^5" D,C,"^#" G,,2 C,2 :: F,2 A,2"^7 6" G,2 F,2 | F,,A,,B,,G,,"^#" A,,2 D,2 | %6
 B,A,"^6"G,F,"^5" E,F,"^Reprise Trium Vocum""^#" C,2 | A,,2 B,,2"^#" C,2 F,,2 :| %8
 C,2"^6" E,2"^7 6" D,2 C,2 |"^#" F,2 A,2"^7 6" G,2 F,2 | F,2 B,G, A,2 D,2 | %11
 F,,2"^6" A,,2"^7 6" G,,2 F,,2 | B,,"^5"D,E,C,"^#" D,2 G,,2 | C,2 E,2"^7 6" D,2 C,2 | %14
 F,2 A,2 G,2 F,2 | z B,,_E,"^6"C,"^#" D, G,2 z | B,2 G,F,"^5" E,F, C2 | A,2 B,2 C2 G,2 | %18
 B,2 G,F,"^5" E,F, C2 | A,2 B,2 C2 F,2 :| %20
 z2 A,2"^Notes: Original keys: Sol, Sol, Ut 2nd, Fa 4rth\n           Basso contuno noted in d major, other voices in C major, in original print\n           Transposed in subdiapente""^7 6" G,2 F,2 | %21
 C8 | F,8 |] %23

